X:1
T:Young Ladies in Town
M:6/8
L:1/8
K:G
 B,| EEE ^D2 B,| GGG F2 A| G3/2 F/2 E FE^D| E E2 z2 B,/2B,/2| EEE ^D2 B,/2B,/2|\
 GGG F2 G/2A/2| G3/2 F/2 E FE^D| E E2 z2 G/2A/2| BBB B2 G| AAA A2 E/2F/2|\
 G2 E BAG| G F2 z2 B,| E3/2 E/2 E ^D2 B,| GGG F2 G/2A/2| G3/2 F/2 E F2 E/2^D/2|\
 E E2 z2||
